X:30
T: Der Maedchenmoerder (Halewijn - Ulinger)
N: Q0041L
O: Mitteleuropa, Deutschland / Frankreich, Lothringen
N: "Loser Zusammenhang zur Ballade"
R: Ballade, Verfuehrung, Mord, Mordversuch bzw. Rache
M: 3/4
L: 1/8
K: A
 | e2e2d2 | =c3de2 | e2ed=c2 |
e2d2d2 | A3Ad2 | =cBA2=G2 |
G2c2d2 | e3Bd2 | =c2B2A2

@@@ Tune index: 766
